X: 5
I: linebreak $
T: Lauro
C: Paul Butler
N: 
N: 
P: Two times through
K: C major
M: 6/4
L: 1/8
cB | "Am"A2e2d2 c4B2 | "C"cBcdef g4g2 | "G"g3fe2 d2c2d2 | "C"g3fe2 "G"d2c2d2 | "Am"e3dcB A6 | "G"G2dcBA G3AB2 | 
"C"c6 c4z2 | "Dm"d3ef2 d3ef2 | "Bb"f2e/f/gfe d4cd | "Am"c6 c3Bc2 | "G"d3cd2 d4dc | "Dm"d2f3e d4c2 | 
"G"dcdedc d6 | "Dm"dd/e/f2e2 d4c2 | "Dm"dcdedc d4c2 | "Bb"dd/e/f2e2 d4c2 | "G"d6 d6 | "Bb"d2f3e d4c2 | 
"Dm"d2f3e d4c2 | "C"cBcdef g4g2 | "Am"cBcdef "G"g4g2 | "C"e3dc2 c4"G"d2 | "C"c6 c6 :| 

